X:14505
T:Rondeau Landes
C:trad.
A:Landes
O:France
Z:S. Piron
M:6/8
L:1/8
Q:1/4=180
K:G
GAB c2c|d2cA2A|GAB c2c|d2cA3:|
ABc B2A|G2FG2G|ABcB2A|G2FG3:||
